icons/rocket-17.svg

<svg width="16" height="17" viewBox="0 0 16 17" fill="none" xmlns="http://www.w3.org/2000/svg">
<path d="M13 3.16638C10.1693 3.29866 7.56791 4.7625 5.98942 7.11701C4.93122 6.93182 3.84656 7.19637 3 7.84893V8.48385C5.58378 8.48385 7.67373 10.5738 7.68255 13.1488V13.1576H8.31747C8.97003 12.311 9.2434 11.2264 9.04939 10.1682C11.4039 8.59849 12.8677 5.99707 13 3.16638ZM8.53793 6.50854C8.53793 5.89125 9.04057 5.38861 9.65786 5.38861C10.2751 5.38861 10.7778 5.89125 10.7778 6.50854C10.7778 7.12582 10.2751 7.62847 9.65786 7.62847C9.04057 7.62847 8.53793 7.12582 8.53793 6.50854Z" fill="#272431"/>
<path d="M4.57862 10.7501C3.92606 10.565 3.23823 10.9353 3.05304 11.5967C3.01777 11.7025 3.00895 11.8172 3.00895 11.9318V13.1664H4.24352C4.34934 13.1664 4.44634 13.1576 4.54335 13.1311C5.20472 12.9636 5.60155 12.2934 5.434 11.632C5.31936 11.1999 4.99308 10.8736 4.57862 10.7501Z" fill="#272431"/>
</svg>

<svg xmlns="http://www.w3.org/2000/svg" width="16" height="17" viewBox="0 0 16 17"><path d="M13 3.166a8.94 8.94 0 00-7.01 3.951A3.816 3.816 0 003 7.849v.635a4.682 4.682 0 014.683 4.665v.009h.634a3.782 3.782 0 00.732-2.99A8.911 8.911 0 0013 3.166zM8.538 6.51c0-.618.503-1.12 1.12-1.12.617 0 1.12.502 1.12 1.12 0 .617-.503 1.12-1.12 1.12-.617 0-1.12-.503-1.12-1.12zm-3.959 4.24a1.23 1.23 0 00-1.526.847c-.035.106-.044.22-.044.335v1.234h1.235c.105 0 .202-.008.3-.035a1.231 1.231 0 00.89-1.499 1.25 1.25 0 00-.855-.882z"/></svg>
